X:1
T:Title
%%score { 1 | ( 2 3 ) }
L:1/8
Q:1/4=110
M:3/4
K:Bb
V:1 treble nm="Grand Piano"
V:2 bass 
V:3 bass 
V:1
 [DF]3 [EG] [DF]2 | [Fd]3 [Ec] [DB]2 | [CEA]2 [B,EG]2 [A,EF]2 | [B,DB]4 z2 | %4
w: W.~H.~Doane * *||||
 [B,GB]3 [B,FA] [B,EG]2 | [B,DF]2 [F,B,D]2 [B,DF]2 | [B,FB]2 [EA]2 [DB]2 | [Fc]4 z2 | %8
w: ||||
 [DF]3 [EG] [DF]2 | [Fd]3 [Fc] [FB]2 | c2 B2 c2 | [Fd]4 z2 | [GB]3 [FA] [EG]2 | [DF]2 [FB]2 [Fd]2 | %14
w: ||||||
 [EFc]2 [DFB]2 [CFA]2 | [DFB]4 z2 | [B,DF]4 z2 | [DFB]4 z2 | [CFA]2 [DFB]2 [EFc]2 | [DFB]4 z2 | %20
w: ||||||
 [B,GB]4 (3[G-c][GB]G | [DF]2 [FB]2 [Fd]2 | [Fc]2 [CFA]2 [B,=EG]2 | [A,F]6 | [B,DF]4 z2 | %25
w: |||||
 [DFB]4 z2 | c2 d2 e2 | [Fd]4 z2 | [GB]4 (3[G-c][GB]G | [DF]2 [FB]2 [Fd]2 | [EFc]2 [DFB]2 [CFA]2 | %31
w: ||||||
 [DFB]4 z2 |] %32
w: |
V:2
 [B,,B,]3 [B,,B,] [B,,B,]2 | [B,,B,]3 [B,,F,] F,B, | F,2 F,2 F,2 | B,,4 z2 | E,3 E, E,2 | %5
 B,,2 B,,2 B,,2 | D,2 [C,F,]2 [B,,F,]2 | [F,A,]4 z2 | [B,,B,]3 [B,,B,] [B,,B,]2 | %9
 [B,,B,]3 [C,A,] [D,B,]2 | [F,A,F]2 [F,G,F]2 [F,A,F]2 | [B,,B,]4 z2 | [E,B,]3 [E,B,] [E,B,]2 | %13
 [F,B,]2 [D,B,]2 [B,,B,]2 | F,2 F,2 F,2 | B,,4 z2 | B,,4 z2 | B,,4 z2 | F,2 F,2 F,2 | B,,4 z2 | %20
 E,4 (3:2:2[E,B,]2 [E,B,E] | [B,,B,]2 [D,B,]2 [B,,B,]2 | [C,A,]2 C,2 C,2 | z2 z2 E2 | B,,4 z2 | %25
 B,,4 z2 | [F,A,F]2 [F,B,F]2 [F,CF]2 | [B,,B,]4 z2 | [E,B,]4 (3:2:2[E,B,]2 [E,B,E] | %29
 [B,,B,]2 [D,B,]2 [B,,B,]2 | F,2 F,2 F,2 | B,,4 z2 |] %32
V:3
 x6 | z2 z2 B,,2 | x6 | x6 | x6 | x6 | x6 | x6 | x6 | x6 | x6 | x6 | x6 | x6 | x6 | x6 | x6 | x6 | %18
 x6 | x6 | x6 | x6 | x6 | F,6 | x6 | x6 | x6 | x6 | x6 | x6 | x6 | x6 |] %32

